static/cards/FrenchDeck/cyberwave/card_spades_07.svg

<svg xmlns="http://www.w3.org/2000/svg" width="822" height="1122" fill="none" viewBox="0 0 822 1122"><rect width="822" height="1122" fill="#1a0033" rx="20"/><g fill="#fff066" clip-path="url(#a)"><path d="M101.998 159q-.896 0-.896-.768 0-.64.512-1.536l42.112-78.464H92.141q-2.943 0-2.943-2.816v-.896q0-1.408.64-1.92.768-.64 2.303-.64h57.857q2.816 0 2.816 2.56 0 .896-.64 2.176a36 36 0 0 1-1.28 2.56l-42.24 78.976q-.256.512-.64.64-.257.128-.896.128zM121.202 281.503c10.18 10.18 26.685 10.18 36.865 0s10.18-26.685 0-36.865l-33.179-33.179a5.213 5.213 0 0 0-7.373 0l-33.179 33.179.004.003c-9.814 10.207-9.692 26.436.365 36.493s26.287 10.179 36.493.365z"/><rect width="5" height="33" x="118.5" y="266" rx="2.5"/><path d="M712.002 959q.896 0 .896.768 0 .64-.512 1.536l-42.112 78.466h51.584c1.963 0 2.944.94 2.944 2.81v.9q0 1.41-.64 1.92c-.512.43-1.28.64-2.304.64h-57.856c-1.877 0-2.816-.85-2.816-2.56 0-.6.214-1.32.64-2.18.342-.76.768-1.62 1.28-2.56l42.24-78.972q.256-.512.64-.64.257-.128.896-.128zM692.798 836.497c-10.18-10.18-26.685-10.18-36.865 0s-10.18 26.685 0 36.865l33.179 33.179a5.213 5.213 0 0 0 7.373 0l33.179-33.179-.004-.003c9.814-10.207 9.692-26.436-.365-36.493s-26.287-10.179-36.493-.365z"/><rect width="5" height="33" x="695.5" y="852" rx="2.5" transform="rotate(-180 695.5 852)"/></g><path stroke="#fff066" stroke-width="8" d="M445.739 577.674c-8.618 8.618-22.59 8.619-31.209.001l-2.777-2.777-2.827 2.718c-8.639 8.306-22.379 8.203-30.892-.31-8.514-8.514-8.617-22.254-.31-30.893l.137-.143 32.983-32.982a1.213 1.213 0 0 1 1.716-.001l33.179 33.179c8.618 8.618 8.618 22.59 0 31.208Z"/><rect width="5" height="33" x="409" y="565" fill="#fff066" rx="2.5"/><path stroke="#fff066" stroke-width="8" d="M445.739 739.674c-8.618 8.618-22.59 8.619-31.209.001l-2.777-2.777-2.827 2.718c-8.639 8.306-22.379 8.203-30.892-.31-8.514-8.514-8.617-22.254-.31-30.893l.137-.143 32.983-32.982a1.213 1.213 0 0 1 1.716-.001l33.179 33.179c8.618 8.618 8.618 22.59 0 31.208Z"/><rect width="5" height="33" x="409" y="727" fill="#fff066" rx="2.5"/><path stroke="#fff066" stroke-width="8" d="M613.739 577.674c-8.618 8.618-22.59 8.619-31.209.001l-2.777-2.777-2.827 2.718c-8.639 8.306-22.379 8.203-30.892-.31-8.514-8.514-8.617-22.254-.31-30.893l.137-.143 32.983-32.982a1.213 1.213 0 0 1 1.716-.001l33.179 33.179c8.618 8.618 8.618 22.59 0 31.208Z"/><rect width="5" height="33" x="577" y="565" fill="#fff066" rx="2.5"/><path stroke="#fff066" stroke-width="8" d="M277.739 577.674c-8.618 8.618-22.59 8.619-31.209.001l-2.777-2.777-2.827 2.718c-8.639 8.306-22.379 8.203-30.892-.31-8.514-8.514-8.617-22.254-.31-30.893l.137-.143 32.983-32.982a1.213 1.213 0 0 1 1.716-.001l33.179 33.179c8.618 8.618 8.618 22.59 0 31.208Z"/><rect width="5" height="33" x="241" y="565" fill="#fff066" rx="2.5"/><path stroke="#fff066" stroke-width="8" d="M613.739 415.674c-8.618 8.618-22.59 8.619-31.209.001l-2.777-2.777-2.827 2.718c-8.639 8.306-22.379 8.203-30.892-.31-8.514-8.514-8.617-22.254-.31-30.893l.137-.143 32.983-32.982a1.213 1.213 0 0 1 1.716-.001l33.179 33.179c8.618 8.618 8.618 22.59 0 31.208Z"/><rect width="5" height="33" x="577" y="403" fill="#fff066" rx="2.5"/><path stroke="#fff066" stroke-width="8" d="M277.739 415.674c-8.618 8.618-22.59 8.619-31.209.001l-2.777-2.777-2.827 2.718c-8.639 8.306-22.379 8.203-30.892-.31-8.514-8.514-8.617-22.254-.31-30.893l.137-.143 32.983-32.982a1.213 1.213 0 0 1 1.716-.001l33.179 33.179c8.618 8.618 8.618 22.59 0 31.208Z"/><rect width="5" height="33" x="241" y="403" fill="#fff066" rx="2.5"/><path stroke="#fff066" stroke-width="8" d="M445.739 415.674c-8.618 8.618-22.59 8.619-31.209.001l-2.777-2.777-2.827 2.718c-8.639 8.306-22.379 8.203-30.892-.31-8.514-8.514-8.617-22.254-.31-30.893l.137-.143 32.983-32.982a1.213 1.213 0 0 1 1.716-.001l33.179 33.179c8.618 8.618 8.618 22.59 0 31.208Z"/><rect width="5" height="33" x="409" y="403" fill="#fff066" rx="2.5"/><defs><clipPath id="a"><path fill="#fff" d="M46 48h722v1022H46z"/></clipPath></defs></svg>

<svg width="822" height="1122" viewBox="0 0 822 1122" fill="none" xmlns="http://www.w3.org/2000/svg">
<rect width="822" height="1122" rx="20" fill="#1A0033"/>
<g clip-path="url(#clip0_31_1523)">
<path d="M101.998 159C101.4 159 101.102 158.744 101.102 158.232C101.102 157.805 101.272 157.293 101.614 156.696L143.726 78.232H92.1415C90.1788 78.232 89.1975 77.2933 89.1975 75.416V74.52C89.1975 73.5813 89.4108 72.9413 89.8375 72.6C90.3495 72.1733 91.1175 71.96 92.1415 71.96H149.998C151.875 71.96 152.814 72.8133 152.814 74.52C152.814 75.1173 152.6 75.8427 152.174 76.696C151.832 77.464 151.406 78.3173 150.894 79.256L108.654 158.232C108.483 158.573 108.27 158.787 108.014 158.872C107.843 158.957 107.544 159 107.118 159H101.998Z" fill="#FFF066"/>
<path d="M121.202 281.503C131.382 291.683 147.887 291.683 158.067 281.503C168.247 271.323 168.247 254.818 158.067 244.638L124.888 211.459C122.852 209.423 119.551 209.423 117.515 211.459L84.3364 244.638L84.34 244.641C74.5265 254.848 74.6481 271.077 84.7051 281.134C94.762 291.191 110.992 291.313 121.198 281.499L121.202 281.503Z" fill="#FFF066"/>
<rect x="118.5" y="266" width="5" height="33" rx="2.5" fill="#FFF066"/>
<path d="M712.002 959C712.6 959 712.898 959.256 712.898 959.768C712.898 960.195 712.728 960.707 712.386 961.304L670.274 1039.77H721.858C723.821 1039.77 724.802 1040.71 724.802 1042.58V1043.48C724.802 1044.42 724.589 1045.06 724.162 1045.4C723.65 1045.83 722.882 1046.04 721.858 1046.04H664.002C662.125 1046.04 661.186 1045.19 661.186 1043.48C661.186 1042.88 661.4 1042.16 661.826 1041.3C662.168 1040.54 662.594 1039.68 663.106 1038.74L705.346 959.768C705.517 959.427 705.73 959.213 705.986 959.128C706.157 959.043 706.456 959 706.882 959H712.002Z" fill="#FFF066"/>
<path d="M692.798 836.497C682.618 826.317 666.113 826.317 655.933 836.497C645.753 846.677 645.753 863.182 655.933 873.362L689.112 906.541C691.148 908.577 694.449 908.577 696.485 906.541L729.664 873.362L729.66 873.359C739.474 863.152 739.352 846.923 729.295 836.866C719.238 826.809 703.008 826.687 692.802 836.501L692.798 836.497Z" fill="#FFF066"/>
<rect x="695.5" y="852" width="5" height="33" rx="2.5" transform="rotate(-180 695.5 852)" fill="#FFF066"/>
</g>
<path d="M445.739 577.674C437.121 586.292 423.149 586.293 414.53 577.675L411.753 574.898L408.926 577.616C400.287 585.922 386.547 585.819 378.034 577.306C369.52 568.792 369.417 555.052 377.724 546.413L377.861 546.27L410.844 513.288C411.318 512.814 412.086 512.813 412.56 513.287L445.739 546.466C454.357 555.084 454.357 569.056 445.739 577.674Z" stroke="#FFF066" stroke-width="8"/>
<rect x="409" y="565" width="5" height="33" rx="2.5" fill="#FFF066"/>
<path d="M445.739 739.674C437.121 748.292 423.149 748.293 414.53 739.675L411.753 736.898L408.926 739.616C400.287 747.922 386.547 747.819 378.034 739.306C369.52 730.792 369.417 717.052 377.724 708.413L377.861 708.27L410.844 675.288C411.318 674.814 412.086 674.813 412.56 675.287L445.739 708.466C454.357 717.084 454.357 731.056 445.739 739.674Z" stroke="#FFF066" stroke-width="8"/>
<rect x="409" y="727" width="5" height="33" rx="2.5" fill="#FFF066"/>
<path d="M613.739 577.674C605.121 586.292 591.149 586.293 582.53 577.675L579.753 574.898L576.926 577.616C568.287 585.922 554.547 585.819 546.034 577.306C537.52 568.792 537.417 555.052 545.724 546.413L545.861 546.27L578.844 513.288C579.318 512.814 580.086 512.813 580.56 513.287L613.739 546.466C622.357 555.084 622.357 569.056 613.739 577.674Z" stroke="#FFF066" stroke-width="8"/>
<rect x="577" y="565" width="5" height="33" rx="2.5" fill="#FFF066"/>
<path d="M277.739 577.674C269.121 586.292 255.149 586.293 246.53 577.675L243.753 574.898L240.926 577.616C232.287 585.922 218.547 585.819 210.034 577.306C201.52 568.792 201.417 555.052 209.724 546.413L209.861 546.27L242.844 513.288C243.318 512.814 244.086 512.813 244.56 513.287L277.739 546.466C286.357 555.084 286.357 569.056 277.739 577.674Z" stroke="#FFF066" stroke-width="8"/>
<rect x="241" y="565" width="5" height="33" rx="2.5" fill="#FFF066"/>
<path d="M613.739 415.674C605.121 424.292 591.149 424.293 582.53 415.675L579.753 412.898L576.926 415.616C568.287 423.922 554.547 423.819 546.034 415.306C537.52 406.792 537.417 393.052 545.724 384.413L545.861 384.27L578.844 351.288C579.318 350.814 580.086 350.813 580.56 351.287L613.739 384.466C622.357 393.084 622.357 407.056 613.739 415.674Z" stroke="#FFF066" stroke-width="8"/>
<rect x="577" y="403" width="5" height="33" rx="2.5" fill="#FFF066"/>
<path d="M277.739 415.674C269.121 424.292 255.149 424.293 246.53 415.675L243.753 412.898L240.926 415.616C232.287 423.922 218.547 423.819 210.034 415.306C201.52 406.792 201.417 393.052 209.724 384.413L209.861 384.27L242.844 351.288C243.318 350.814 244.086 350.813 244.56 351.287L277.739 384.466C286.357 393.084 286.357 407.056 277.739 415.674Z" stroke="#FFF066" stroke-width="8"/>
<rect x="241" y="403" width="5" height="33" rx="2.5" fill="#FFF066"/>
<path d="M445.739 415.674C437.121 424.292 423.149 424.293 414.53 415.675L411.753 412.898L408.926 415.616C400.287 423.922 386.547 423.819 378.034 415.306C369.52 406.792 369.417 393.052 377.724 384.413L377.861 384.27L410.844 351.288C411.318 350.814 412.086 350.813 412.56 351.287L445.739 384.466C454.357 393.084 454.357 407.056 445.739 415.674Z" stroke="#FFF066" stroke-width="8"/>
<rect x="409" y="403" width="5" height="33" rx="2.5" fill="#FFF066"/>
<defs>
<clipPath id="clip0_31_1523">
<rect width="722" height="1022" fill="white" transform="translate(46 48)"/>
</clipPath>
</defs>
</svg>
